svgs/themes.svg

<svg width="192" height="192" viewBox="0 0 192 192" fill="none" xmlns="http://www.w3.org/2000/svg"><g clip-path="url(#a)"><path d="M96 22v30m24-30v36m-42 76v24a11.998 11.998 0 0 0 12 12h12c3.183 0 6.235-1.264 8.485-3.515A11.996 11.996 0 0 0 114 158v-24M48 96v20a11.998 11.998 0 0 0 12 12h72c3.183 0 6.235-1.264 8.485-3.515A11.996 11.996 0 0 0 144 116V96.149L48 96Zm0 0V46a24 24 0 0 1 24-24h72v74H48Z" stroke="#000" stroke-width="12" stroke-linecap="round" stroke-linejoin="round"/></g><defs><clipPath id="a"><path fill="#fff" d="M0 0h192v192H0z"/></clipPath></defs></svg>

<?xml version="1.0" encoding="UTF-8" standalone="no"?><svg xmlns:android="http://schemas.android.com/apk/res/android" height="192" width="192" xmlns="http://www.w3.org/2000/svg">
  <g>
    <clip-path android:pathData="M0,0h192v192h-192z"/>
    <path d="M96,22V52M120,22V58M78,134V158C78,161.18 79.26,164.24 81.51,166.49C83.77,168.74 86.82,170 90,170H102C105.18,170 108.24,168.74 110.49,166.49C112.74,164.24 114,161.18 114,158V134M48,96V116C48,119.18 49.26,122.24 51.51,124.49C53.77,126.74 56.82,128 60,128H132C135.18,128 138.24,126.74 140.49,124.49C142.74,122.24 144,119.18 144,116V96.15L48,96ZM48,96V46C48,39.63 50.53,33.53 55.03,29.03C59.53,24.53 65.63,22 72,22H144V96H48Z" fill="#000000" fill-opacity="0.0" stroke="#000000" stroke-linecap="round" stroke-linejoin="round" stroke-width="12"/>
  </g>
</svg>
